X: 22
T: Irish Washerwoman, The
Z: Benjamin Glauser
S: https://thesession.org/tunes/92#setting47039
R: jig
M: 6/8
L: 1/8
K: Gmaj
dc|:BGG DGG|BGB dcB|cAA EAA|cAc edc|
BGG DGG|BGB dcB|cBc Adc|BGG G2 d:|
|:gdg gdg|gdg bag|fdf fdf|fdf agf|
egg dgg|cgg Bgg|cBc Adc|BGG G3:|

